packages/core/src/svgs/vext.svg

<svg width="24" height="24" viewBox="0 0 24 24" fill="none" xmlns="http://www.w3.org/2000/svg">
<g clip-path="url(#clip0_31_20397)">
<path d="M0 0H24V24H0V0Z" fill="url(#paint0_linear_31_20397)"/>
<path fill-rule="evenodd" clip-rule="evenodd" d="M19.0543 8.86266L14.1601 13.8855C14.152 13.8934 14.1474 13.9042 14.1472 13.9155C14.1472 13.9241 14.1472 13.9369 14.1558 13.9455L14.7472 14.8755L16.7015 17.9784C16.7144 17.9998 16.7101 18.0084 16.6844 17.9955L13.5129 16.4527C13.0844 16.2384 12.7672 16.1098 12.5572 16.0584C11.994 15.9215 11.4003 15.993 10.8858 16.2598L7.32006 17.9955C7.27721 18.0127 7.26864 18.0041 7.29435 17.9655L7.67578 17.3741L9.85292 13.9327C9.85655 13.9259 9.85808 13.9182 9.85732 13.9106C9.85655 13.9029 9.85353 13.8957 9.84864 13.8898L8.70435 12.7284L3.45435 7.32838C3.41149 7.28552 3.42006 7.27266 3.47578 7.28552L11.3744 9.55695C11.6315 9.63409 11.9015 9.6598 12.1715 9.63409C12.3429 9.62123 12.5829 9.5698 12.8872 9.4798C15.4464 8.75043 18.0049 8.01901 20.5629 7.28552C20.5649 7.28613 20.5668 7.28724 20.5683 7.28873C20.5698 7.29023 20.5709 7.29207 20.5715 7.29409V7.30695L19.0543 8.85838V8.86266ZM12.7758 10.6627C14.4092 10.1087 16.0435 9.55722 17.6786 9.00838C17.6915 9.00838 17.6915 9.01695 17.6786 9.02552L12.5658 12.2098C12.3215 12.3641 12.0729 12.4112 11.8158 12.3598C11.5846 12.2932 11.3659 12.1889 11.1686 12.0512C9.55292 11.0312 7.95435 10.0327 6.38149 9.0598C6.27435 8.99552 6.27864 8.98266 6.39864 9.02123L11.5586 10.7741C11.8158 10.8598 12.0301 10.8941 12.2658 10.8298C12.3386 10.8084 12.5101 10.7527 12.7758 10.6584V10.6627ZM17.9186 9.14123C17.9186 9.12838 17.9058 9.12409 17.8843 9.1198C16.1829 10.3155 14.4815 11.5112 12.7844 12.7155C12.5272 12.8955 12.3343 12.9984 12.1972 13.0284C11.9229 13.0884 11.6572 13.0284 11.4086 12.8569C9.61803 11.5929 7.8266 10.3301 6.03435 9.06838V9.08552L10.8901 13.8427C10.8981 13.8506 10.9028 13.8614 10.9029 13.8727C10.9039 13.8834 10.9009 13.8941 10.8944 13.9027L8.13864 17.1298C8.07435 17.2069 8.08292 17.2155 8.16006 17.1555C9.30006 16.3284 10.3886 15.5269 11.4215 14.7641C11.5272 14.6791 11.6505 14.6187 11.7825 14.5876C11.9145 14.5565 12.0518 14.5553 12.1844 14.5841C12.3258 14.6141 12.5186 14.7169 12.7586 14.8969C13.8034 15.6693 14.8519 16.4365 15.9044 17.1984C15.9086 17.1984 15.9129 17.1941 15.9086 17.1855L15.9044 17.1769L13.0972 13.8941C13.0944 13.8913 13.0921 13.888 13.0905 13.8843C13.089 13.8806 13.0882 13.8767 13.0882 13.8727C13.0882 13.8687 13.089 13.8647 13.0905 13.861C13.0921 13.8574 13.0944 13.854 13.0972 13.8512L17.9143 9.14552L17.9186 9.14123Z" fill="white"/>
</g>
<defs>
<linearGradient id="paint0_linear_31_20397" x1="12" y1="0" x2="12" y2="24" gradientUnits="userSpaceOnUse">
<stop stop-color="#6564FE"/>
<stop offset="1" stop-color="#4C40F8"/>
</linearGradient>
<clipPath id="clip0_31_20397">
<rect width="24" height="24" fill="white"/>
</clipPath>
</defs>
</svg>

<svg xmlns="http://www.w3.org/2000/svg" width="24" height="24" fill="none" viewBox="0 0 24 24"><g clip-path="url(#a)"><path fill="url(#b)" d="M0 0h24v24H0z"/><path fill="#fff" fill-rule="evenodd" d="m19.054 8.863-4.894 5.023a.04.04 0 0 0-.013.03c0 .008 0 .02.009.03l.591.93 1.954 3.102q.022.035-.017.017l-3.171-1.542c-.429-.215-.746-.343-.956-.395a2.4 2.4 0 0 0-1.671.202L7.32 17.995q-.064.029-.026-.03l.382-.59 2.177-3.442a.04.04 0 0 0-.004-.043l-1.145-1.162-5.25-5.4q-.063-.062.022-.042l7.898 2.271c.258.077.527.103.797.077q.259-.02.716-.154 3.84-1.095 7.676-2.194.003 0 .005.003l.003.005v.013l-1.517 1.551zm-6.278 1.8q2.45-.831 4.903-1.655c.013 0 .013.009 0 .018l-5.113 3.184a1 1 0 0 1-.75.15 2.2 2.2 0 0 1-.647-.309A616 616 0 0 0 6.38 9.06q-.161-.096.018-.039l5.16 1.753c.257.086.471.12.707.056q.11-.031.51-.172zm5.143-1.522c0-.013-.013-.017-.035-.021-1.701 1.196-3.402 2.391-5.1 3.596q-.383.269-.587.312a.98.98 0 0 1-.788-.171Q8.723 10.96 6.034 9.068v.018l4.856 4.757a.04.04 0 0 1 .013.03.04.04 0 0 1-.009.03L8.14 17.13q-.096.115.021.026c1.14-.828 2.229-1.63 3.262-2.392a.9.9 0 0 1 .762-.18q.214.044.575.313 1.567 1.159 3.145 2.301.01 0 .005-.012l-.005-.01-2.807-3.282-.006-.01a.03.03 0 0 1 0-.023l.006-.01 4.817-4.705z" clip-rule="evenodd"/></g><defs><linearGradient id="b" x1="12" x2="12" y1="0" y2="24" gradientUnits="userSpaceOnUse"><stop stop-color="#6564FE"/><stop offset="1" stop-color="#4C40F8"/></linearGradient><clipPath id="a"><path fill="#fff" d="M0 0h24v24H0z"/></clipPath></defs></svg>
